X:2
T:A Night at the Kino
M:C|
L:1/8
Q:120
C:© Paul Gitlitz 1998
R:Reel
B:Giblitz Fancy
N:After an exhilarating evening of Romanian music at the Kino cafe, I penned this ditty.
K:A
"A"EAce aece|fecf "E7"ec^Bc|"A"EAce aece|"E7"fece "A"^Bc A2|!
"A"EAce aece|fecf "E7"ec^Bc|"A"EAce aece|"E7"fece "A"^Bc A2|!
"A7"ae=ge "Cdim"f/2g/2f/2e/2^de|"A7"ae=ge "Cdim"f/2g/2f/2e/2^de|"A7"ae=ge "Cdim"f/2g/2f/2e/2^de|^Bc^de"E7"fede|!
"A7"ae=ge "Cdim"f/2g/2f/2e/2^de|"A7"ae=ge "Cdim"f/2g/2f/2e/2^de|"A"EA^Bc "Cdim"^defa|"E7"=gfe^d "A"^BcA2|]
